img/repair.svg

<svg width="40" height="40" viewBox="0 0 40 40" fill="none" xmlns="http://www.w3.org/2000/svg">
<g clip-path="url(#clip0)">
<path d="M5.94465 9.8157C6.02311 9.77741 6.09935 9.73599 6.17318 9.69467C6.21067 9.7441 6.24986 9.79139 6.29599 9.83672L10.6182 14.1599C10.8887 13.8427 11.2869 13.6428 11.7185 13.6428C11.8582 13.6428 11.9973 13.6629 12.1313 13.7028L12.6702 13.8631L13.0056 12.7347L8.20172 7.93046C8.12549 7.85511 8.04355 7.79179 7.95511 7.73764L7.96642 7.68794C7.97782 7.64225 7.99261 7.60797 8.0065 7.56851C8.01755 7.53903 8.02921 7.50813 8.04017 7.47571C8.05415 7.44427 8.06804 7.41087 8.08203 7.37605C8.10589 7.31807 8.13128 7.2552 8.16387 7.19134L8.25409 7.00814L8.35687 6.82663C8.40024 6.74327 8.44922 6.67087 8.50507 6.58804C8.53499 6.54422 8.565 6.49862 8.59555 6.4524C8.62254 6.41633 8.65086 6.37955 8.67873 6.34143C8.74874 6.24907 8.81402 6.16144 8.88491 6.08564L8.93443 6.03105C9.02821 5.92872 9.12199 5.82291 9.23118 5.73278C9.26591 5.70179 9.2921 5.67774 9.31971 5.65334C9.35658 5.61896 9.39398 5.58387 9.43388 5.55244L9.64442 5.39943C9.65155 5.39533 9.65636 5.39088 9.66108 5.38625C9.74533 5.31901 9.84641 5.26201 9.95445 5.2018C9.99773 5.1782 10.0397 5.15478 10.0822 5.12948C10.1726 5.07151 10.2658 5.03401 10.365 4.99429C10.4151 4.97327 10.464 4.95332 10.514 4.93186C10.5428 4.92046 10.5723 4.90719 10.6012 4.89436C10.6326 4.88145 10.6635 4.86586 10.695 4.85803L10.9265 4.79301C10.9725 4.78161 11.0259 4.7662 11.0798 4.75062C11.1551 4.72862 11.2279 4.70778 11.2769 4.70119L11.8968 4.61052C11.987 4.59743 12.0669 4.55548 12.1284 4.49475C12.1956 4.42679 12.2406 4.33488 12.247 4.2338C12.2602 4.04107 12.1378 3.8649 11.9527 3.81058L11.3418 3.63682C11.2356 3.60494 11.1227 3.58837 11.014 3.57243C10.9656 3.56495 10.916 3.55782 10.8637 3.54909L10.5962 3.50768C10.5123 3.49405 10.4337 3.49209 10.3637 3.49067C10.3362 3.48969 10.3084 3.48916 10.2794 3.48773C10.2094 3.48675 10.1587 3.48399 10.1063 3.48159C9.95053 3.47508 9.77436 3.46823 9.58716 3.49263L9.46862 3.50216C9.28943 3.51703 9.08423 3.5336 8.87814 3.58303L8.54773 3.64982C8.44611 3.67494 8.36105 3.70121 8.27582 3.72775L8.17153 3.75963C7.93258 3.8259 7.70663 3.92075 7.48781 4.01301L7.4578 4.02557C7.27014 4.10332 7.09977 4.19416 6.9351 4.28189L6.79848 4.35465C6.78895 4.35937 6.78164 4.3648 6.77212 4.36979C6.7193 4.40266 6.66524 4.43507 6.61278 4.46705C6.4702 4.55335 6.32173 4.64276 6.18458 4.74465L5.95605 4.90772C5.95124 4.91182 5.9288 4.92812 5.92319 4.93275L5.69706 5.11327C5.63614 5.1603 5.57994 5.20804 5.52606 5.25515C5.11879 5.32292 4.72745 5.51191 4.41369 5.82657L3.92946 6.30999C3.70654 6.53318 3.49743 6.84614 3.32518 7.19677C2.56612 7.05098 1.53613 8.1719 0 9.70758L3.435 13.1409C4.61265 11.9627 6.09142 10.5748 5.94465 9.8157Z" fill="#FCDB50"/>
<path d="M32.88 9.60274L35.044 10.0213L37.2466 7.24031C37.6488 6.73569 38.3177 6.50467 38.942 6.65233V5.45473H35.689V8.05709H32.1855L32.88 9.60274Z" fill="#FCDB50"/>
<path d="M13.2416 10.3054L13.9094 8.05664H10.9935L13.2416 10.3054Z" fill="#FCDB50"/>
<path d="M38.9421 22.0428V13.7069C38.8835 13.787 38.8256 13.868 38.7632 13.9463C37.8579 15.0896 36.6566 15.9124 35.3101 16.3506H35.6903V22.0428H28.0651H26.9746L31.0585 16.4744C31.1326 16.3797 31.2009 16.2817 31.2641 16.1815C33.5458 16.7534 36.0561 15.9917 37.6089 14.0321C38.7418 12.6017 39.1824 10.7549 38.8166 8.96417C38.776 8.7612 38.6202 8.60062 38.4194 8.55218C38.2174 8.50462 38.0065 8.57747 37.8772 8.73929L35.2449 12.0627L31.8225 11.4002L30.3936 8.2198L33.0272 4.89613C33.156 4.73404 33.1785 4.51139 33.0857 4.32667C32.9926 4.14125 32.801 4.02689 32.5946 4.03268C30.767 4.08656 29.0696 4.93754 27.9363 6.36786C26.3853 8.32649 26.2176 10.943 27.2935 13.0325C27.2121 13.1182 27.1321 13.2092 27.0552 13.3059L21.7704 19.5929L23.0494 20.8721C23.3808 21.2035 23.6125 21.6051 23.7364 22.0427H23.1662C23.0619 21.7557 22.8972 21.4862 22.6661 21.2558L15.3914 13.9796L15.2023 14.6139L15.6952 14.7606C16.0662 14.8704 16.3719 15.1183 16.5561 15.4582C16.7401 15.7981 16.781 16.19 16.6709 16.5605C16.6115 16.7592 16.5095 16.9424 16.3749 17.097C16.4129 17.437 16.3839 17.7813 16.2838 18.1124L15.6305 20.3126L17.3606 22.0416H16.8063H15.5954H14.3802L15.6649 17.7167C15.7752 17.3486 15.7659 16.9728 15.6626 16.6305C15.8435 16.5381 15.9889 16.3743 16.0517 16.1639C16.1721 15.7561 15.9398 15.3269 15.5316 15.2062L14.3898 14.8662L17.4936 4.41939L17.5913 4.44842L18.3953 2.89181L18.7107 0.464094L17.3707 0.0664368L16.3277 2.27871L16.1602 4.02404L16.2594 4.05361L13.1556 14.5011L11.9671 14.1481C11.5604 14.027 11.1303 14.2595 11.0095 14.6672C10.9512 14.8643 10.9752 15.0658 11.0615 15.2361C10.7756 15.4681 10.5529 15.7866 10.44 16.1663L8.69681 22.0428H7.53501H7.06593V16.3512H9.22593L9.61201 15.0497C9.70926 14.7237 9.77579 14.634 9.96976 14.3621L6.48276 10.7894C6.00521 11.447 5.53238 12.1293 4.79692 12.8593L3.81368 13.8416V22.0428H2.75573V33.4281C2.75573 37.0204 5.66936 39.9333 9.26217 39.9333H33.495C37.0882 39.9333 40 37.0208 40 33.4281V22.0428H38.9421ZM13.4073 17.9991C13.5355 17.5659 13.9907 17.3199 14.424 17.448C14.8554 17.5766 15.1026 18.0317 14.9739 18.4646L13.9117 22.0429H12.2061L13.4073 17.9991ZM10.7723 17.2166C10.9006 16.784 11.3559 16.5374 11.7888 16.6655C12.2216 16.794 12.4682 17.249 12.3394 17.6816L11.0441 22.0429H9.33886L10.7723 17.2166Z" fill="#FCDB50"/>
<path d="M17.6277 8.05664L16.3692 12.2931L20.4279 16.3512H22.6035L26.2221 12.0469C25.7251 10.7618 25.6128 9.37795 25.859 8.05655H17.6277V8.05664Z" fill="#FCDB50"/>
</g>
<defs>
<clipPath id="clip0">
<rect width="40" height="39.9999" fill="white"/>
</clipPath>
</defs>
</svg>

<svg width="40" height="40" fill="none" xmlns="http://www.w3.org/2000/svg"><g clip-path="url(#clip0)" fill="#FCDB50"><path d="M5.945 9.816c.078-.039.154-.08.228-.121.038.05.077.096.123.142l4.322 4.323c.27-.317.669-.517 1.1-.517.14 0 .28.02.413.06l.54.16.335-1.128L8.202 7.93a1.353 1.353 0 00-.247-.192l.011-.05c.012-.046.027-.08.04-.12.012-.029.023-.06.034-.092l.042-.1c.024-.058.05-.12.082-.185l.09-.183.103-.181c.043-.084.092-.156.148-.239l.09-.136.084-.11c.07-.093.135-.18.206-.256l.05-.055c.093-.102.187-.208.296-.298l.089-.08c.037-.034.074-.07.114-.1l.21-.154a2.151 2.151 0 01.31-.198 2 2 0 00.128-.072 1.62 1.62 0 01.283-.135c.05-.02.099-.04.149-.062l.087-.038c.032-.013.063-.028.094-.036l.232-.065c.046-.011.099-.027.153-.042.075-.022.148-.043.197-.05l.62-.09a.41.41 0 00.056-.8l-.611-.174a2.31 2.31 0 00-.328-.065c-.048-.007-.098-.014-.15-.023l-.268-.041a1.621 1.621 0 00-.232-.017l-.085-.003c-.07-.001-.12-.004-.173-.006a2.972 2.972 0 00-.519.01l-.118.01c-.18.015-.385.032-.59.081l-.331.067a4.529 4.529 0 00-.272.078l-.104.032a5.656 5.656 0 00-.684.253l-.03.013c-.188.077-.358.168-.523.256l-.137.073c-.01.004-.016.01-.026.015l-.16.097c-.142.086-.29.176-.427.278l-.229.163-.033.025-.226.18c-.06.047-.117.095-.17.142a2.036 2.036 0 00-1.113.572l-.485.483a3.39 3.39 0 00-.604.887C2.566 7.05 1.536 8.172 0 9.707l3.435 3.434c1.178-1.178 2.656-2.566 2.51-3.325zm26.935-.213l2.164.418 2.203-2.78a1.687 1.687 0 011.695-.589V5.455h-3.253v2.602h-3.504l.695 1.546z"/><path d="M13.242 10.305l.667-2.248h-2.916l2.249 2.248z"/><path d="M38.942 22.043v-8.336c-.059.08-.116.161-.179.24a7.26 7.26 0 01-3.453 2.404h.38v5.692h-8.715l4.083-5.569c.075-.094.143-.192.206-.293a6.177 6.177 0 006.345-2.149 6.159 6.159 0 001.208-5.068.532.532 0 00-.94-.225l-2.632 3.324-3.422-.663-1.43-3.18 2.634-3.324a.532.532 0 00-.432-.863 6.16 6.16 0 00-4.659 2.335 6.18 6.18 0 00-.642 6.665 4.13 4.13 0 00-.239.273l-5.285 6.287 1.28 1.28c.33.33.563.732.686 1.17h-.57a2.135 2.135 0 00-.5-.787l-7.275-7.276-.189.634.493.147c.371.11.677.357.861.697a1.44 1.44 0 01-.181 1.639c.038.34.009.684-.091 1.015l-.653 2.2 1.73 1.73H14.38l1.285-4.325a1.88 1.88 0 00-.002-1.086.77.77 0 00-.131-1.425l-1.142-.34L17.494 4.42l.097.03.804-1.557.316-2.428-1.34-.398-1.043 2.213-.168 1.745.1.03L13.155 14.5l-1.189-.353a.77.77 0 00-.905 1.088 1.88 1.88 0 00-.622.93l-1.743 5.877H7.065V16.35h2.16l.387-1.301c.097-.326.164-.416.358-.688L6.483 10.79c-.478.658-.95 1.34-1.686 2.07l-.983.983v8.2H2.756v11.386a6.506 6.506 0 006.506 6.505h24.233A6.505 6.505 0 0040 33.428V22.043h-1.058zm-25.535-4.044a.818.818 0 111.567.466l-1.062 3.578h-1.706l1.201-4.044zm-2.635-.782a.818.818 0 011.567.465l-1.295 4.36H9.34l1.433-4.825z"/><path d="M17.628 8.057l-1.259 4.236 4.059 4.058h2.175l3.62-4.304a7.338 7.338 0 01-.364-3.99h-8.231z"/></g><defs><clipPath id="clip0"><path fill="#fff" d="M0 0h40v40H0z"/></clipPath></defs></svg>
